home/.icons/Gruvbox-Plus-Dark/apps/scalable/system-lock-screen.svg

<svg xmlns="http://www.w3.org/2000/svg" style="isolation:isolate" width="256" height="256">
    <g filter="url(#a)">
        <linearGradient id="b" x1="0" y1="0" x2="0" y2="1" gradientTransform="matrix(244.648 0 0 228.338 5.68 11.952)" gradientUnits="userSpaceOnUse">
            <stop offset="0%" stop-color="#282828"/>
            <stop offset="100%" stop-color="#282828"/>
        </linearGradient>
        <path d="M165.689 11.952c74.056 0 84.639 10.557 84.639 84.543v59.251c0 73.987-10.583 84.544-84.639 84.544h-75.37c-74.055 0-84.639-10.557-84.639-84.544V96.495c0-73.986 10.584-84.543 84.639-84.543h75.37z" fill="url(#b)"/>
    </g>
    <g opacity=".4">
        <linearGradient id="c" x1=".517" y1="0" x2=".517" y2="1" gradientTransform="matrix(244.65 0 0 228.34 5.68 11.95)" gradientUnits="userSpaceOnUse">
            <stop offset="0%" stop-color="#ebdbb2"/>
            <stop offset="12.5%" stop-opacity=".098" stop-color="#ebdbb2"/>
            <stop offset="92.5%" stop-opacity=".098"/>
            <stop offset="100%" stop-opacity=".498"/>
        </linearGradient>
        <path d="M165.068 11.951c4.328-.01 8.656.04 12.984.138 3.875.078 7.751.226 11.626.452 3.453.196 6.905.481 10.348.854 3.059.335 6.118.786 9.148 1.346 2.715.502 5.4 1.14 8.046 1.916 2.4.698 4.751 1.562 7.023 2.584a40.385 40.385 0 0 1 6.059 3.35 35.172 35.172 0 0 1 5.135 4.215 35.058 35.058 0 0 1 4.219 5.119 41.674 41.674 0 0 1 3.364 6.042 56.008 56.008 0 0 1 2.597 7.005 80.05 80.05 0 0 1 1.918 8.037 124.589 124.589 0 0 1 1.348 9.127c.374 3.439.659 6.878.856 10.326.226 3.861.373 7.732.462 11.593.088 4.323.138 8.646.128 12.959v58.212c.01 4.323-.04 8.636-.128 12.959a326.856 326.856 0 0 1-.462 11.593 201.12 201.12 0 0 1-.856 10.326 124.856 124.856 0 0 1-1.348 9.137 80.519 80.519 0 0 1-1.918 8.027 55.43 55.43 0 0 1-2.597 7.005 41.153 41.153 0 0 1-3.364 6.042 34.536 34.536 0 0 1-4.219 5.119 35.172 35.172 0 0 1-5.135 4.215 40.385 40.385 0 0 1-6.059 3.35 55.194 55.194 0 0 1-7.023 2.594 78.035 78.035 0 0 1-8.046 1.906c-3.03.569-6.089 1.011-9.148 1.346a202.81 202.81 0 0 1-10.348.854c-3.875.226-7.751.374-11.626.462-4.328.088-8.656.138-12.984.128H90.942c-4.328.01-8.656-.04-12.984-.128a327.282 327.282 0 0 1-11.626-.462 202.81 202.81 0 0 1-10.348-.854 120.942 120.942 0 0 1-9.148-1.346 78.035 78.035 0 0 1-8.046-1.906 55.194 55.194 0 0 1-7.023-2.594 40.385 40.385 0 0 1-6.059-3.35 35.172 35.172 0 0 1-5.135-4.215 34.536 34.536 0 0 1-4.219-5.119 41.153 41.153 0 0 1-3.364-6.042 55.43 55.43 0 0 1-2.597-7.005 80.519 80.519 0 0 1-1.918-8.027 124.856 124.856 0 0 1-1.348-9.137 201.12 201.12 0 0 1-.856-10.326 326.856 326.856 0 0 1-.462-11.593 571.312 571.312 0 0 1-.128-12.959V97.014c-.01-4.313.04-8.636.128-12.959.089-3.861.236-7.732.462-11.593.197-3.448.482-6.887.856-10.326.335-3.055.787-6.101 1.348-9.127a80.05 80.05 0 0 1 1.918-8.037 56.008 56.008 0 0 1 2.597-7.005 41.674 41.674 0 0 1 3.364-6.042 35.058 35.058 0 0 1 4.219-5.119 35.172 35.172 0 0 1 5.135-4.215 40.385 40.385 0 0 1 6.059-3.35 53.663 53.663 0 0 1 7.023-2.584 80.763 80.763 0 0 1 8.046-1.916c3.03-.56 6.089-1.011 9.148-1.346a202.81 202.81 0 0 1 10.348-.854c3.875-.226 7.751-.374 11.626-.452a520.43 520.43 0 0 1 12.984-.138h74.126zm.01 4.009c4.298-.01 8.597.039 12.895.127 3.827.089 7.653.236 11.479.452 3.384.197 6.767.472 10.131.845 2.971.315 5.932.747 8.863 1.297a76.091 76.091 0 0 1 7.653 1.818 50.445 50.445 0 0 1 6.501 2.397 37.043 37.043 0 0 1 5.469 3.026 30.377 30.377 0 0 1 4.525 3.724 31.053 31.053 0 0 1 3.738 4.519 37.261 37.261 0 0 1 3.029 5.443 51.33 51.33 0 0 1 2.4 6.494 75.456 75.456 0 0 1 1.83 7.634 120.85 120.85 0 0 1 1.298 8.842c.374 3.36.65 6.73.846 10.11.217 3.822.374 7.634.453 11.456.088 4.293.137 8.577.137 12.87v58.212c0 4.293-.049 8.577-.137 12.87a316.867 316.867 0 0 1-.453 11.456c-.196 3.38-.472 6.75-.846 10.12a121.383 121.383 0 0 1-1.298 8.832 75.456 75.456 0 0 1-1.83 7.634 50.767 50.767 0 0 1-2.4 6.494 36.749 36.749 0 0 1-3.029 5.443 30.61 30.61 0 0 1-3.738 4.529 30.94 30.94 0 0 1-4.525 3.714 37.043 37.043 0 0 1-5.469 3.026 49.001 49.001 0 0 1-6.501 2.397 76.091 76.091 0 0 1-7.653 1.818c-2.931.55-5.892.982-8.863 1.306-3.364.364-6.747.649-10.131.836-3.826.216-7.652.373-11.479.452-4.298.098-8.597.137-12.895.137H90.932c-4.298 0-8.597-.039-12.895-.137a321.281 321.281 0 0 1-11.479-.452 193.497 193.497 0 0 1-10.131-.836 116.655 116.655 0 0 1-8.863-1.306 76.091 76.091 0 0 1-7.653-1.818 49.001 49.001 0 0 1-6.501-2.397 37.043 37.043 0 0 1-5.469-3.026 30.94 30.94 0 0 1-4.525-3.714 30.61 30.61 0 0 1-3.738-4.529 36.749 36.749 0 0 1-3.029-5.443 50.767 50.767 0 0 1-2.4-6.494 75.456 75.456 0 0 1-1.83-7.634 121.383 121.383 0 0 1-1.298-8.832c-.374-3.37-.649-6.74-.846-10.12a316.867 316.867 0 0 1-.453-11.456 627.536 627.536 0 0 1-.137-12.87V97.014c0-4.293.049-8.577.137-12.87.079-3.822.236-7.634.453-11.456.197-3.38.472-6.75.846-10.11a120.85 120.85 0 0 1 1.298-8.842 75.456 75.456 0 0 1 1.83-7.634 51.33 51.33 0 0 1 2.4-6.494 37.261 37.261 0 0 1 3.029-5.443 31.053 31.053 0 0 1 3.738-4.519 30.377 30.377 0 0 1 4.525-3.724 37.043 37.043 0 0 1 5.469-3.026 50.445 50.445 0 0 1 6.501-2.397 76.091 76.091 0 0 1 7.653-1.818 112.27 112.27 0 0 1 8.863-1.297 194.61 194.61 0 0 1 10.131-.845c3.826-.216 7.652-.363 11.479-.452 4.298-.088 8.597-.137 12.895-.127h74.146z" fill-rule="evenodd" fill="url(#c)"/>
    </g>
    <g opacity=".4" filter="url(#d)">
        <path d="M128 56c-20.02 0-36.25 16.23-36.25 36.25v36.25H67.583V201h120.834v-72.5H164.25V92.25C164.25 72.23 148.02 56 128 56zm0 12.083c13.347 0 24.167 10.82 24.167 24.167v36.25h-48.334V92.25c0-13.347 10.82-24.167 24.167-24.167z" class="ColorScheme-Text"/>
    </g>
    <linearGradient id="e" x1="0" y1=".5" x2="1" y2=".5" gradientTransform="matrix(120.833 0 0 145 67.583 53.5)" gradientUnits="userSpaceOnUse">
<stop offset="0%" stop-opacity="1" style="stop-color:#fb4934"/>
<stop offset="100%" stop-opacity="1" style="stop-color:#fe8019"/>
    </linearGradient>
    <path d="M128 53.5c-20.02 0-36.25 16.23-36.25 36.25V126H67.583v72.5h120.834V126H164.25V89.75c0-20.02-16.23-36.25-36.25-36.25zm0 12.083c13.347 0 24.167 10.82 24.167 24.167V126h-48.334V89.75c0-13.347 10.82-24.167 24.167-24.167z" class="ColorScheme-Text" fill="url(#e)"/>
</svg>

<svg xmlns="http://www.w3.org/2000/svg" style="isolation:isolate" width="256" height="256" viewBox="0 0 256 256">
 <g filter="url(#fr7F6sL3tnb3ezat8j54vtOWM3CJ8ZL0)">
  <linearGradient id="_lgradient_57" x1="0" x2="0" y1="0" y2="1.001" gradientTransform="matrix(244.648,0,0,228.338,5.68,11.95)" gradientUnits="userSpaceOnUse">
   <stop offset="0%" style="stop-color:#ebdbb2"/>
   <stop offset="100%" style="stop-color:#d5c4a1"/>
  </linearGradient>
  <path fill="url(#_lgradient_57)" d="M 165.689 11.95 C 239.745 11.95 250.328 22.507 250.328 96.494 L 250.328 155.745 C 250.328 229.731 239.745 240.288 165.689 240.288 L 90.319 240.288 C 16.264 240.288 5.68 229.731 5.68 155.745 L 5.68 96.494 C 5.68 22.507 16.264 11.95 90.319 11.95 L 165.689 11.95 L 165.689 11.95 Z"/>
 </g>
 <g style="opacity:0.4">
  <g opacity=".4">
   <linearGradient id="_lgradient_58" x1=".517" x2=".517" y1="0" y2="1.209" gradientTransform="matrix(244.65,0,0,228.34,5.68,11.95)" gradientUnits="userSpaceOnUse">
    <stop offset="0%" style="stop-color:#ebdbb2"/>
    <stop offset="12.5%" stop-opacity=".098" style="stop-color:#ebdbb2"/>
    <stop offset="92.5%" stop-opacity=".098" style="stop-color:#282828"/>
    <stop offset="100%" stop-opacity=".498" style="stop-color:#282828"/>
   </linearGradient>
   <path fill="url(#_lgradient_58)" fill-rule="evenodd" d="M 165.068 11.951 C 169.396 11.941 173.724 11.991 178.052 12.089 C 181.927 12.167 185.803 12.315 189.678 12.541 C 193.131 12.737 196.583 13.022 200.026 13.395 C 203.085 13.73 206.144 14.181 209.174 14.741 C 211.889 15.243 214.574 15.881 217.22 16.657 C 219.62 17.355 221.971 18.219 224.243 19.241 C 226.358 20.184 228.384 21.304 230.302 22.591 C 232.142 23.829 233.863 25.244 235.437 26.806 C 237.001 28.378 238.417 30.088 239.656 31.925 C 240.945 33.841 242.066 35.865 243.02 37.967 C 244.043 40.247 244.909 42.585 245.617 44.972 C 246.394 47.615 247.034 50.297 247.535 53.009 C 248.096 56.035 248.548 59.081 248.883 62.136 C 249.257 65.575 249.542 69.014 249.739 72.462 C 249.965 76.323 250.112 80.194 250.201 84.055 C 250.289 88.378 250.339 92.701 250.329 97.014 L 250.329 155.226 C 250.339 159.549 250.289 163.862 250.201 168.185 C 250.112 172.056 249.965 175.917 249.739 179.778 C 249.542 183.226 249.257 186.675 248.883 190.104 C 248.548 193.159 248.096 196.215 247.535 199.241 C 247.034 201.943 246.394 204.625 245.617 207.268 C 244.909 209.655 244.043 212.003 243.02 214.273 C 242.066 216.385 240.945 218.399 239.656 220.315 C 238.417 222.152 237.001 223.872 235.437 225.434 C 233.863 226.996 232.142 228.411 230.302 229.649 C 228.384 230.936 226.358 232.056 224.243 232.999 C 221.971 234.021 219.62 234.885 217.22 235.593 C 214.574 236.369 211.889 237.007 209.174 237.499 C 206.144 238.068 203.085 238.51 200.026 238.845 C 196.583 239.218 193.131 239.503 189.678 239.699 C 185.803 239.925 181.927 240.073 178.052 240.161 C 173.724 240.249 169.396 240.299 165.068 240.289 L 90.942 240.289 C 86.614 240.299 82.286 240.249 77.958 240.161 C 74.083 240.073 70.207 239.925 66.332 239.699 C 62.879 239.503 59.427 239.218 55.984 238.845 C 52.925 238.51 49.866 238.068 46.836 237.499 C 44.121 237.007 41.436 236.369 38.79 235.593 C 36.39 234.885 34.039 234.021 31.767 232.999 C 29.652 232.056 27.626 230.936 25.708 229.649 C 23.868 228.411 22.147 226.996 20.573 225.434 C 19.009 223.872 17.593 222.152 16.354 220.315 C 15.065 218.399 13.944 216.385 12.99 214.273 C 11.967 212.003 11.101 209.655 10.393 207.268 C 9.616 204.625 8.976 201.943 8.475 199.241 C 7.914 196.215 7.462 193.159 7.127 190.104 C 6.753 186.675 6.468 183.226 6.271 179.778 C 6.045 175.917 5.898 172.056 5.809 168.185 C 5.721 163.862 5.671 159.549 5.681 155.226 L 5.681 97.014 C 5.671 92.701 5.721 88.378 5.809 84.055 C 5.898 80.194 6.045 76.323 6.271 72.462 C 6.468 69.014 6.753 65.575 7.127 62.136 C 7.462 59.081 7.914 56.035 8.475 53.009 C 8.976 50.297 9.616 47.615 10.393 44.972 C 11.101 42.585 11.967 40.247 12.99 37.967 C 13.944 35.865 15.065 33.841 16.354 31.925 C 17.593 30.088 19.009 28.378 20.573 26.806 C 22.147 25.244 23.868 23.829 25.708 22.591 C 27.626 21.304 29.652 20.184 31.767 19.241 C 34.039 18.219 36.39 17.355 38.79 16.657 C 41.436 15.881 44.121 15.243 46.836 14.741 C 49.866 14.181 52.925 13.73 55.984 13.395 C 59.427 13.022 62.879 12.737 66.332 12.541 C 70.207 12.315 74.083 12.167 77.958 12.089 C 82.286 11.991 86.614 11.941 90.942 11.951 L 165.068 11.951 L 165.068 11.951 Z M 165.078 15.96 C 169.376 15.95 173.675 15.999 177.973 16.087 C 181.8 16.176 185.626 16.323 189.452 16.539 C 192.836 16.736 196.219 17.011 199.583 17.384 C 202.554 17.699 205.515 18.131 208.446 18.681 C 211.023 19.153 213.58 19.762 216.099 20.499 C 218.322 21.147 220.495 21.953 222.6 22.896 C 224.509 23.751 226.338 24.763 228.069 25.922 C 229.692 27.013 231.207 28.26 232.594 29.646 C 233.981 31.031 235.23 32.544 236.332 34.165 C 237.492 35.894 238.506 37.712 239.361 39.608 C 240.306 41.72 241.112 43.892 241.761 46.102 C 242.509 48.617 243.109 51.162 243.591 53.736 C 244.132 56.664 244.565 59.611 244.889 62.578 C 245.263 65.938 245.539 69.308 245.735 72.688 C 245.952 76.51 246.109 80.322 246.188 84.144 C 246.276 88.437 246.325 92.721 246.325 97.014 C 246.325 97.014 246.325 97.014 246.325 97.014 L 246.325 155.226 C 246.325 155.226 246.325 155.226 246.325 155.226 C 246.325 159.519 246.276 163.803 246.188 168.096 C 246.109 171.918 245.952 175.74 245.735 179.552 C 245.539 182.932 245.263 186.302 244.889 189.672 C 244.565 192.629 244.132 195.576 243.591 198.504 C 243.109 201.078 242.509 203.623 241.761 206.138 C 241.112 208.358 240.306 210.52 239.361 212.632 C 238.506 214.528 237.492 216.356 236.332 218.075 C 235.23 219.706 233.981 221.219 232.594 222.604 C 231.207 223.98 229.692 225.227 228.069 226.318 C 226.338 227.477 224.509 228.489 222.6 229.344 C 220.495 230.297 218.322 231.093 216.099 231.741 C 213.58 232.478 211.023 233.087 208.446 233.559 C 205.515 234.109 202.554 234.541 199.583 234.865 C 196.219 235.229 192.836 235.514 189.452 235.701 C 185.626 235.917 181.8 236.074 177.973 236.153 C 173.675 236.251 169.376 236.29 165.078 236.29 C 165.078 236.29 165.078 236.29 165.068 236.29 L 90.942 236.29 C 90.932 236.29 90.932 236.29 90.932 236.29 C 86.634 236.29 82.335 236.251 78.037 236.153 C 74.21 236.074 70.384 235.917 66.558 235.701 C 63.174 235.514 59.791 235.229 56.427 234.865 C 53.456 234.541 50.495 234.109 47.564 233.559 C 44.987 233.087 42.43 232.478 39.911 231.741 C 37.688 231.093 35.515 230.297 33.41 229.344 C 31.501 228.489 29.672 227.477 27.941 226.318 C 26.318 225.227 24.803 223.98 23.416 222.604 C 22.029 221.219 20.78 219.706 19.678 218.075 C 18.518 216.356 17.504 214.528 16.649 212.632 C 15.704 210.52 14.898 208.358 14.249 206.138 C 13.501 203.623 12.901 201.078 12.419 198.504 C 11.878 195.576 11.445 192.629 11.121 189.672 C 10.747 186.302 10.472 182.932 10.275 179.552 C 10.058 175.74 9.901 171.918 9.822 168.096 C 9.734 163.803 9.685 159.519 9.685 155.226 C 9.685 155.226 9.685 155.226 9.685 155.226 L 9.685 97.014 C 9.685 97.014 9.685 97.014 9.685 97.014 C 9.685 92.721 9.734 88.437 9.822 84.144 C 9.901 80.322 10.058 76.51 10.275 72.688 C 10.472 69.308 10.747 65.938 11.121 62.578 C 11.445 59.611 11.878 56.664 12.419 53.736 C 12.901 51.162 13.501 48.617 14.249 46.102 C 14.898 43.892 15.704 41.72 16.649 39.608 C 17.504 37.712 18.518 35.894 19.678 34.165 C 20.78 32.544 22.029 31.031 23.416 29.646 C 24.803 28.26 26.318 27.013 27.941 25.922 C 29.672 24.763 31.501 23.751 33.41 22.896 C 35.515 21.953 37.688 21.147 39.911 20.499 C 42.43 19.762 44.987 19.153 47.564 18.681 C 50.495 18.131 53.456 17.699 56.427 17.384 C 59.791 17.011 63.174 16.736 66.558 16.539 C 70.384 16.323 74.21 16.176 78.037 16.087 C 82.335 15.999 86.634 15.95 90.932 15.96 C 90.932 15.96 90.932 15.96 90.942 15.96 L 165.068 15.96 C 165.078 15.96 165.078 15.96 165.078 15.96 Z"/>
  </g>
 </g>
 <linearGradient id="_lgradient_59" x1=".187" x2=".19" y1=".005" y2=".79" gradientTransform="matrix(180,0,0,160,38,39)" gradientUnits="userSpaceOnUse">
  <stop offset="0%" style="stop-color:#83a598"/>
  <stop offset="100%" style="stop-color:#458588"/>
 </linearGradient>
 <path fill="url(#_lgradient_59)" d="M 42.01 39 L 213.99 39 C 216.203 39 218 40.797 218 43.01 L 218 194.99 C 218 197.203 216.203 199 213.99 199 L 42.01 199 C 39.797 199 38 197.203 38 194.99 L 38 43.01 C 38 40.797 39.797 39 42.01 39 Z"/>
 <rect fill="#665c54" width="160" height="11" x="48" y="49" transform="matrix(1,0,0,1,0,0)"/>
 <g style="opacity:0.8">
  <g opacity=".8">
   <linearGradient id="_lgradient_60" x1="0" x2="0" y1="0" y2=".104" gradientTransform="matrix(113.333,0,0,19,70.667,174)" gradientUnits="userSpaceOnUse">
    <stop offset="0%" style="stop-color:#ebdbb2"/>
    <stop offset="100%" style="stop-color:#d5c4a1"/>
   </linearGradient>
   <path fill="url(#_lgradient_60)" d="M 75.417 174 L 179.25 174 C 181.872 174 184 176.128 184 178.75 L 184 188.25 C 184 190.872 181.872 193 179.25 193 L 75.417 193 C 72.795 193 70.667 190.872 70.667 188.25 L 70.667 178.75 C 70.667 176.128 72.795 174 75.417 174 Z"/>
  </g>
 </g>
 <path fill="#3c3836" fill-rule="evenodd" d="M 42.01 39 L 213.99 39 C 216.203 39 218 40.797 218 43.01 L 218 194.99 C 218 197.203 216.203 199 213.99 199 L 42.01 199 C 39.797 199 38 197.203 38 194.99 L 38 43.01 C 38 40.797 39.797 39 42.01 39 Z M 208 189 L 48 189 L 48 49 L 208 49 L 208 189 L 208 189 Z"/>
 <path fill="#3c3836" d="M 127.269 204.115 C 124.545 204.115 123.163 206.087 123.163 209.98 L 123.163 212.913 C 123.163 213.13 123.104 213.389 123.001 213.597 C 122.966 213.669 122.801 213.902 122.655 214.107 C 121.84 215.247 120.036 218.4 119.702 221.828 C 119.832 221.803 119.965 221.784 120.114 221.784 C 120.473 221.784 121.422 221.784 122.934 224.279 C 123.223 224.694 123.374 224.948 123.583 225.297 C 123.722 225.535 123.894 225.826 124.169 226.263 L 124.183 226.284 L 124.199 226.309 C 124.358 226.591 124.522 226.816 124.682 227.029 C 124.774 227.152 124.868 227.281 124.96 227.413 C 125.319 227.269 125.686 227.054 125.904 226.742 C 126.19 226.266 126.158 225.7 125.819 225.191 C 125.679 224.978 125.42 224.827 124.802 224.472 C 124.43 224.261 123.97 223.997 123.759 223.816 C 123.267 223.396 122.577 222.476 122.577 221.747 C 122.577 220.19 123.619 217.814 124.456 216.404 C 124.935 215.6 125.299 214.979 125.443 214.45 C 125.525 214.507 125.617 214.562 125.745 214.606 L 125.766 214.613 L 125.789 214.62 C 126.197 214.727 126.607 214.709 126.873 214.709 C 127.425 214.709 127.823 214.443 128.195 214.221 C 128.559 213.999 128.919 213.793 128.971 213.774 C 129.237 214.276 129.581 214.741 129.939 215.225 C 130.919 216.544 132.097 218.764 132.445 222.061 C 132.901 221.821 133.162 221.747 133.721 221.747 C 133.733 221.747 133.746 221.75 133.758 221.75 C 133.808 221.747 133.856 221.743 133.906 221.743 C 134.053 221.743 134.202 221.752 134.349 221.766 C 134.695 221.786 135.158 221.906 135.43 222 C 135.888 222.135 136.267 222.375 136.532 222.682 C 136.771 222.685 137 222.739 137.21 222.843 C 137.21 222.46 137.24 221.898 137.24 221.747 C 137.24 219.812 135.971 217.14 135.016 215.77 C 134.819 215.486 134.628 215.22 134.445 214.965 C 133.6 213.795 132.93 212.869 132.548 211.275 C 132.296 210.239 132.262 209.918 132.227 209.609 C 132.195 209.297 132.159 208.972 131.95 208.097 C 131.57 206.323 131.1 204.114 127.269 204.114 L 127.269 204.115 L 127.269 204.115 Z M 125.51 207.634 C 126.158 207.634 126.683 208.814 126.683 209.787 C 126.683 209.847 126.676 209.941 126.671 210.026 C 126.627 210.024 126.584 210.017 126.538 210.017 C 126.371 210.017 126.216 210.042 126.066 210.081 C 125.996 209.708 125.78 209.43 125.51 209.43 C 125.187 209.43 124.923 209.824 124.923 210.31 C 124.923 210.429 124.939 210.542 124.969 210.644 C 124.81 210.763 124.69 210.864 124.618 210.935 L 124.563 210.983 C 124.519 210.89 124.481 210.793 124.451 210.695 C 124.385 210.285 124.336 209.788 124.336 209.788 C 124.336 208.814 124.861 207.635 125.51 207.635 L 125.51 207.634 L 125.51 207.634 Z M 128.442 207.634 C 129.09 207.634 129.615 208.814 129.615 209.787 C 129.615 210.15 129.537 210.576 129.411 210.912 C 129.258 210.847 129.099 210.793 128.937 210.752 C 128.99 210.621 129.029 210.475 129.029 210.31 C 129.029 209.824 128.765 209.43 128.442 209.43 C 128.12 209.43 127.856 209.824 127.856 210.31 L 127.856 210.317 C 127.671 210.24 127.481 210.176 127.287 210.125 C 127.278 210.012 127.272 209.9 127.269 209.787 C 127.269 208.814 127.794 207.634 128.442 207.634 Z M 126.538 211.19 C 126.776 211.19 127.123 211.284 127.439 211.412 C 127.755 211.54 128.023 211.682 128.247 211.776 L 128.293 211.797 L 128.341 211.806 C 128.639 211.877 128.907 211.953 129.017 212.01 C 128.988 212.262 128.958 212.4 128.944 212.42 C 128.928 212.445 128.845 212.523 128.545 212.684 C 128.174 212.816 127.892 213.032 127.59 213.215 C 127.257 213.414 126.921 213.536 126.873 213.536 C 126.616 213.536 126.261 213.518 126.119 213.488 C 126.174 213.504 126.078 213.456 125.956 213.343 C 125.826 213.22 125.663 213.05 125.498 212.874 L 125.454 212.83 L 125.409 212.798 C 125.221 212.665 125.074 212.546 125.003 212.461 C 124.93 212.375 124.923 212.349 124.923 212.291 C 124.923 212.204 124.907 212.257 124.96 212.197 C 125.013 212.136 125.173 212.01 125.39 211.817 L 125.411 211.801 L 125.429 211.781 C 125.397 211.815 125.61 211.607 125.842 211.455 C 126.073 211.304 126.359 211.19 126.538 211.19 Z M 133.906 222.918 C 133.359 222.918 132.979 223.081 132.876 223.211 C 133.114 223.487 133.261 223.752 133.412 224.233 C 133.574 224.591 133.982 224.68 134.308 224.68 C 135.302 224.68 135.494 224.082 135.809 223.745 C 135.809 223.745 135.726 223.654 135.726 223.565 C 135.644 223.386 135.4 223.207 135.075 223.118 C 134.83 223.028 134.422 222.939 134.26 222.939 C 134.142 222.924 134.024 222.917 133.906 222.918 Z M 120.114 222.957 C 119.706 222.957 119.504 223.159 119.232 223.432 C 118.959 223.702 118.67 224.124 118.194 224.463 C 117.775 225.008 116.521 224.483 116.162 225.304 C 115.962 225.752 116.647 226.344 116.647 227.358 C 116.647 227.767 116.306 228.037 116.239 228.309 C 116.171 228.646 116.102 228.85 116.239 229.12 C 116.51 229.526 116.851 229.663 119.163 230.135 C 120.387 230.408 121.543 231.086 122.291 231.153 C 123.037 231.219 124.329 231.153 124.329 229.324 C 124.398 228.24 123.787 227.97 123.175 226.887 C 122.495 225.8 122.428 225.599 121.952 224.921 C 121.543 224.243 120.659 222.957 120.114 222.957 L 120.114 222.957 L 120.114 222.957 Z M 132.099 224.128 C 131.961 224.403 131.961 224.612 131.961 225.304 C 131.961 225.858 131.961 226.481 131.893 226.967 C 131.753 228.144 131.375 228.673 131.375 229.365 C 131.375 230.129 131.583 230.615 131.861 230.823 C 132.067 231.031 132.415 231.169 133.178 231.169 C 133.939 231.169 134.424 230.892 134.91 230.408 C 135.256 230.06 135.534 229.923 136.505 229.228 C 137.266 228.743 138.446 228.12 138.652 227.913 C 138.792 227.773 139 227.702 139 227.286 C 139 226.94 138.723 226.802 138.514 226.733 C 138.237 226.593 137.754 226.385 137.337 225.762 C 137.155 225.461 137.183 224.69 136.965 224.219 L 136.666 224.543 C 136.63 224.579 136.601 224.627 136.567 224.671 C 136.283 225.056 135.691 225.853 134.308 225.853 C 133.4 225.853 132.667 225.429 132.344 224.717 L 132.315 224.653 L 132.291 224.582 C 132.218 224.348 132.159 224.222 132.099 224.128 Z M 130.497 227.876 C 129.939 228.357 129.084 228.823 127.856 228.823 C 126.607 228.823 125.764 228.362 125.228 227.89 C 125.413 228.28 125.537 228.743 125.502 229.361 C 125.502 229.584 125.482 229.794 125.45 229.996 L 130.25 229.996 C 130.219 229.787 130.203 229.576 130.202 229.365 C 130.202 228.847 130.33 228.426 130.456 228.018 C 130.47 227.972 130.483 227.921 130.497 227.876 L 130.497 227.876 L 130.497 227.876 Z"/>
 <circle fill="#3c3836" cx="128" cy="26.922" r="4" vector-effect="non-scaling-stroke"/>
 <circle fill="#ebdbb2" cx="55" cy="54" r="3" vector-effect="non-scaling-stroke"/>
 <rect fill="#ebdbb2" width="20" height="2.34" x="180" y="51" transform="matrix(1,0,0,1,0,0)"/>
 <rect fill="#ebdbb2" width="15" height="2.34" x="185" y="55.66" transform="matrix(1,0,0,1,0,0)"/>
 <path fill="#3c3836" d="M 128 74 C 116.038 74 106.25 83.788 106.25 95.75 L 106.25 113.875 L 95.375 113.875 L 95.375 161 L 160.625 161 L 160.625 113.875 L 149.75 113.875 L 149.75 95.75 C 149.75 83.788 139.963 74 128 74 Z M 128 81.25 C 136.044 81.25 142.5 87.706 142.5 95.75 L 142.5 113.875 L 113.5 113.875 L 113.5 95.75 C 113.5 87.706 119.956 81.25 128 81.25 Z"/>
</svg>
